X: 38201
T: Spring Is Come
R: reel
M: 4/4
K: Dmajor
|:dF~F2 AFEF|dfec dBAd|Beed e2de|faaf edBc|
dF~F2 AFEF|dfec dBAd|Beed e2de|1 fdec Adfe:|2 fdec Adde||
|:~f3a afef|dBBA BAFA|eg~g2 bgeg|gfed cABc|
df~f2 afef|dBBA BAFA|~G3F GBdB|1 ABde fdde:|2 ABGE FDFA||

